public/img/google-pay.svg

<svg width="75" height="43" viewBox="0 0 75 43" fill="none" xmlns="http://www.w3.org/2000/svg">
<path fill-rule="evenodd" clip-rule="evenodd" d="M75 40.7119C75 41.9788 73.8867 43 72.5051 43H2.49399C1.11313 43 0 41.9788 0 40.7119V2.28893C0 1.02123 1.11313 0 2.49399 0H72.5051C73.8867 0 75 1.02123 75 2.28893V40.7119Z" fill="#F8F8F8"/>
<path fill-rule="evenodd" clip-rule="evenodd" d="M58.365 18.0418L53.001 30.6101H51.3757L53.3799 26.236L49.8579 18.097H51.5925L54.1398 24.3535H54.1925L56.687 18.097H58.367V18.0416L58.365 18.0418ZM35.4963 21.5853V26.7344H33.8711V14H38.0983C39.1278 14 40.1025 14.3876 40.8624 15.1075C41.6203 15.772 41.9993 16.7685 41.9993 17.8203C41.9993 18.8724 41.6203 19.8136 40.8624 20.5333C40.1025 21.253 39.1824 21.6406 38.0983 21.6406L35.4963 21.5853ZM35.4963 15.5502V19.9797H38.2057C38.8015 19.9797 39.3993 19.7584 39.7783 19.3152C40.6456 18.4846 40.6456 17.1007 39.831 16.2701L39.7783 16.2147C39.3446 15.7717 38.8015 15.4951 38.2057 15.5502H35.4963ZM45.7382 17.765C46.9317 17.765 47.8517 18.097 48.5569 18.7615C49.2621 19.426 49.5864 20.3118 49.5864 21.4191V26.7344H48.0686V25.5165H48.0158C47.3653 26.5129 46.4433 27.0112 45.3592 27.0112C44.4391 27.0112 43.6265 26.7344 42.976 26.1807C42.3782 25.6269 41.9993 24.8519 41.9993 24.0214C41.9993 23.1353 42.3255 22.4156 42.976 21.8619C43.6265 21.3085 44.5466 21.0869 45.6307 21.0869C46.6055 21.0869 47.3653 21.253 47.9611 21.6406V21.253C47.9611 20.6993 47.7443 20.1457 47.3106 19.8136C46.877 19.426 46.3359 19.2045 45.7382 19.2045C44.8181 19.2045 44.1129 19.5921 43.6265 20.3673L42.2161 19.4815C43.0834 18.3189 44.2223 17.7652 45.7401 17.7652L45.7382 17.765ZM43.6792 24.0767C43.6792 24.5196 43.8961 24.9072 44.2223 25.1289C44.6013 25.4054 45.0349 25.5718 45.4686 25.5718C46.119 25.5718 46.7676 25.2948 47.2559 24.7966C47.799 24.2981 48.0686 23.6891 48.0686 23.0249C47.5822 22.6373 46.877 22.4156 45.955 22.4156C45.3045 22.4156 44.7634 22.5818 44.3297 22.9141C43.896 23.1908 43.6792 23.5784 43.6792 24.0769V24.0767Z" fill="#5F6368"/>
<path fill-rule="evenodd" clip-rule="evenodd" d="M29.0498 20.4782C29.0498 19.9799 28.9951 19.4815 28.9404 18.9834H22.168V21.8072H26.0142C25.8521 22.693 25.3637 23.5235 24.6058 24.022V25.849H26.9362C28.2899 24.5757 29.0498 22.693 29.0498 20.4784V20.4782Z" fill="#4285F4"/>
<path fill-rule="evenodd" clip-rule="evenodd" d="M22.167 27.6206C24.1185 27.6206 25.7437 26.956 26.9373 25.8487L24.6068 24.0217C23.9564 24.4647 23.1437 24.7414 22.167 24.7414C20.3249 24.7414 18.6997 23.468 18.1566 21.6963H15.7734V23.5788C17.0197 26.0704 19.4576 27.6206 22.167 27.6206Z" fill="#34A853"/>
<path fill-rule="evenodd" clip-rule="evenodd" d="M18.1553 21.6959C17.831 20.8101 17.831 19.8134 18.1553 18.8722V16.9897H15.7721C14.7426 19.0383 14.7426 21.4746 15.7721 23.5786L18.1553 21.6961V21.6959Z" fill="#FBBC04"/>
<path fill-rule="evenodd" clip-rule="evenodd" d="M22.165 15.882C23.1945 15.882 24.1712 16.2696 24.9291 16.9894L26.99 14.8855C25.689 13.6672 23.9543 12.9476 22.2197 13.003C19.5103 13.003 17.0178 14.5532 15.8242 17.0448L18.2094 18.9273C18.6977 17.1556 20.323 15.882 22.165 15.882Z" fill="#EA4335"/>
</svg>

<svg width="75" height="43" viewBox="0 0 75 43" fill="none" xmlns="http://www.w3.org/2000/svg"><path fill-rule="evenodd" clip-rule="evenodd" d="M75 40.712C75 41.979 73.887 43 72.505 43H2.494C1.114 43 0 41.979 0 40.712V2.289C0 1.02 1.113 0 2.494 0h70.011C73.887 0 75 1.021 75 2.289v38.423z" fill="#F8F8F8"/><path fill-rule="evenodd" clip-rule="evenodd" d="M58.365 18.042L53.001 30.61h-1.625l2.004-4.374-3.522-8.139h1.735l2.547 6.256h.053l2.494-6.256h1.68v-.055h-.002zm-22.869 3.543v5.15h-1.625V14h4.227a3.99 3.99 0 012.764 1.107C41.62 15.773 42 16.77 42 17.82c0 1.052-.379 1.994-1.137 2.713-.76.72-1.68 1.108-2.764 1.108l-2.602-.056zm0-6.035v4.43h2.71c.595 0 1.193-.222 1.572-.665.868-.83.868-2.214.053-3.045l-.053-.055c-.433-.443-.977-.72-1.572-.665h-2.71zm10.242 2.215c1.194 0 2.114.332 2.819.997.705.664 1.03 1.55 1.03 2.657v5.315h-1.518v-1.218h-.053c-.65.997-1.573 1.495-2.657 1.495-.92 0-1.733-.277-2.383-.83-.598-.554-.977-1.33-.977-2.16 0-.886.326-1.605.977-2.16.65-.553 1.57-.774 2.655-.774.974 0 1.734.166 2.33.554v-.388c0-.554-.217-1.107-.65-1.44a2.332 2.332 0 00-1.573-.608c-.92 0-1.625.387-2.111 1.162l-1.41-.886c.866-1.162 2.005-1.716 3.523-1.716h-.002zm-2.059 6.312c0 .443.217.83.543 1.052.38.276.813.443 1.247.443.65 0 1.299-.277 1.787-.775.543-.499.813-1.108.813-1.772-.487-.388-1.192-.61-2.114-.61-.65 0-1.192.167-1.625.5-.434.276-.65.663-.65 1.162z" fill="#5F6368"/><path fill-rule="evenodd" clip-rule="evenodd" d="M29.05 20.478c0-.498-.055-.997-.11-1.495h-6.772v2.824h3.846c-.162.886-.65 1.716-1.408 2.215v1.827h2.33c1.354-1.273 2.114-3.156 2.114-5.37z" fill="#4285F4"/><path fill-rule="evenodd" clip-rule="evenodd" d="M22.167 27.62c1.951 0 3.577-.664 4.77-1.771l-2.33-1.827c-.65.443-1.463.72-2.44.72-1.842 0-3.467-1.274-4.01-3.046h-2.384v1.883c1.247 2.491 3.685 4.042 6.394 4.042z" fill="#34A853"/><path fill-rule="evenodd" clip-rule="evenodd" d="M18.155 21.696c-.324-.886-.324-1.883 0-2.824V16.99h-2.383c-1.03 2.048-1.03 4.485 0 6.589l2.383-1.883z" fill="#FBBC04"/><path fill-rule="evenodd" clip-rule="evenodd" d="M22.165 15.882c1.03 0 2.006.388 2.764 1.107l2.061-2.104c-1.301-1.218-3.036-1.937-4.77-1.882a7.09 7.09 0 00-6.396 4.042l2.385 1.882c.489-1.771 2.114-3.045 3.956-3.045z" fill="#EA4335"/></svg>
